Sources/FrostedUI/Resources/Icons.xcassets/fullScreen20.imageset/full-screen-20.svg

<svg width="20" height="20" viewBox="0 0 20 20" fill="none" xmlns="http://www.w3.org/2000/svg" data-fui-icon="true">
  <path
    d="M2 12.7285C2.41421 12.7285 2.75 13.0643 2.75 13.4785V14.25C2.75 15.9069 4.09315 17.25 5.75 17.25H6.7998C7.21402 17.25 7.5498 17.5858 7.5498 18C7.5498 18.4142 7.21402 18.75 6.7998 18.75H5.75C3.26472 18.75 1.25 16.7353 1.25 14.25V13.4785C1.25 13.0643 1.58579 12.7285 2 12.7285ZM18 12.7285C18.4142 12.7285 18.75 13.0643 18.75 13.4785V14.25C18.75 16.7353 16.7353 18.75 14.25 18.75H13.2002C12.786 18.75 12.4502 18.4142 12.4502 18C12.4502 17.5858 12.786 17.25 13.2002 17.25H14.25C15.9069 17.25 17.25 15.9069 17.25 14.25V13.4785C17.25 13.0643 17.5858 12.7285 18 12.7285ZM6.7998 1.25C7.21402 1.25 7.5498 1.58579 7.5498 2C7.5498 2.41421 7.21402 2.75 6.7998 2.75H5.75C4.09315 2.75 2.75 4.09315 2.75 5.75V6.52148C2.75 6.9357 2.41421 7.27148 2 7.27148C1.58579 7.27148 1.25 6.9357 1.25 6.52148V5.75C1.25 3.26472 3.26472 1.25 5.75 1.25H6.7998ZM14.25 1.25C16.7353 1.25 18.75 3.26472 18.75 5.75V6.52148C18.75 6.9357 18.4142 7.27148 18 7.27148C17.5858 7.27148 17.25 6.9357 17.25 6.52148V5.75C17.25 4.09315 15.9069 2.75 14.25 2.75H13.2002C12.786 2.75 12.4502 2.41421 12.4502 2C12.4502 1.58579 12.786 1.25 13.2002 1.25H14.25Z"
    fill="currentColor"
  />
</svg>

<svg xmlns="http://www.w3.org/2000/svg" width="20" height="20" fill="none" data-fui-icon="true" viewBox="0 0 20 20"><path fill="currentColor" d="M2 12.729a.75.75 0 0 1 .75.75v.771a3 3 0 0 0 3 3H6.8a.75.75 0 0 1 0 1.5H5.75a4.5 4.5 0 0 1-4.5-4.5v-.771a.75.75 0 0 1 .75-.75m16 0a.75.75 0 0 1 .75.75v.771a4.5 4.5 0 0 1-4.5 4.5H13.2a.75.75 0 0 1 0-1.5h1.05a3 3 0 0 0 3-3v-.771a.75.75 0 0 1 .75-.75M6.8 1.25a.75.75 0 1 1 0 1.5H5.75a3 3 0 0 0-3 3v.771a.75.75 0 1 1-1.5 0V5.75a4.5 4.5 0 0 1 4.5-4.5zm7.45 0a4.5 4.5 0 0 1 4.5 4.5v.771a.75.75 0 0 1-1.5 0V5.75a3 3 0 0 0-3-3H13.2a.75.75 0 0 1 0-1.5z"/></svg>
